Extension/src/pages/assets/icons/social.svg

<svg height="60" viewBox="0 0 60 60" width="60" xmlns="http://www.w3.org/2000/svg"><g fill="none" fill-rule="evenodd"><rect fill="#90cdb1" height="60" rx="4" width="60"/><path d="m45 20.6959166c-1.1039041.4894912-2.2899565.8203695-3.534954.9691387 1.2706615-.7617172 2.2465971-1.9678672 2.7062056-3.4051691-1.1893922.7054088-2.5064599 1.2175758-3.9084884 1.4935518-1.1226541-1.1961891-2.7223189-1.9435509-4.4926085-1.9435509-3.3990753 0-6.1547926 2.7556001-6.1547926 6.1546169 0 .4824014.0544335.9521466.1593747 1.402673-5.1152244-.2567573-9.6504304-2.7070259-12.6860495-6.4308273-.5298036.9090217-.8333773 1.9662853-.8333773 3.0942713 0 2.1353865 1.0865604 4.0192891 2.7380806 5.1230174-1.0089238-.0319922-1.9579649-.3088471-2.7877094-.7698618-.0005859.025664-.0005859.0514452-.0005859.0774022 0 2.9820645 2.121617 5.4695987 4.9371583 6.0351444-.5163857.1405662-1.0601932.2160348-1.6215202.2160348-.3966204 0-.7821665-.0386718-1.1580447-.1106248.7832798 2.4451124 3.0562441 4.2248355 5.7495591 4.2743471-2.1064412 1.6509343-4.7603227 2.63478-7.6440085 2.63478-.4968154 0-.9867168-.0290624-1.4682393-.0861912 2.7237837 1.7465005 5.9590313 2.7654438 9.4348058 2.7654438 11.3209349 0 17.5117627-9.3786145 17.5117627-17.511997 0-.2668355-.0060938-.5322646-.0178711-.7962875 1.202693-.8677132 2.246187-1.9516955 3.0713026-3.1859118z" stroke="#fff" stroke-width="2"/></g></svg>

<?xml version="1.0" encoding="UTF-8"?>
<svg width="60px" height="60px" viewBox="0 0 60 60" version="1.1" xmlns="http://www.w3.org/2000/svg" xmlns:xlink="http://www.w3.org/1999/xlink">
    <!-- Generator: Sketch 51.3 (57544) - http://www.bohemiancoding.com/sketch -->
    <title>Group 14</title>
    <desc>Created with Sketch.</desc>
    <defs></defs>
    <g id="Page-1" stroke="none" stroke-width="1" fill="none" fill-rule="evenodd">
        <g id="Group-14">
            <g id="Group-3" fill="#90CDB1">
                <rect id="Rectangle" x="0" y="0" width="60" height="60" rx="4"></rect>
            </g>
            <path d="M45,20.6959166 C43.8960959,21.1854078 42.7100435,21.5162861 41.465046,21.6650553 C42.7357075,20.9033381 43.7116431,19.6971881 44.1712516,18.2598862 C42.9818594,18.965295 41.6647917,19.477462 40.2627632,19.753438 C39.1401091,18.5572489 37.5404443,17.8098871 35.7701547,17.8098871 C32.3710794,17.8098871 29.6153621,20.5654872 29.6153621,23.964504 C29.6153621,24.4469054 29.6697956,24.9166506 29.7747368,25.367177 C24.6595124,25.1104197 20.1243064,22.6601511 17.0886873,18.9363497 C16.5588837,19.8453714 16.25531,20.902635 16.25531,22.030621 C16.25531,24.1660075 17.3418704,26.0499101 18.9933906,27.1536384 C17.9844668,27.1216462 17.0354257,26.8447913 16.2056812,26.3837766 C16.2050953,26.4094406 16.2050953,26.4352218 16.2050953,26.4611788 C16.2050953,29.4432433 18.3267123,31.9307775 21.1422536,32.4963232 C20.6258679,32.6368894 20.0820604,32.712358 19.5207334,32.712358 C19.124113,32.712358 18.7385669,32.6736862 18.3626887,32.6017332 C19.1459685,35.0468456 21.4189328,36.8265687 24.1122478,36.8760803 C22.0058066,38.5270146 19.3519251,39.5108603 16.4682393,39.5108603 C15.9714239,39.5108603 15.4815225,39.4817979 15,39.4246691 C17.7237837,41.1711696 20.9590313,42.1901129 24.4348058,42.1901129 C35.7557407,42.1901129 41.9465685,32.8114984 41.9465685,24.6781159 C41.9465685,24.4112804 41.9404747,24.1458513 41.9286974,23.8818284 C43.1313904,23.0141152 44.1748844,21.9301329 45,20.6959166 Z" id="Shape" stroke="#FFFFFF" stroke-width="2"></path>
        </g>
    </g>
</svg>
